X: 15995
T: Gravel Walks, The
R: reel
M: 4/4
K: Adorian
|:A2eA c/B/A eA|c/B/A ec BAGB|A2eA B/c/d ef|gedc BAGB:|
A2aA gAfA|A2ec BAGB|A2aA gAfA|gedc BAGB|
A2aA gAfA|A2ec BAGB|ABcd efga|gedc BAGB||
cAAG A2 AB|cAAd BGBd|cAAG A2ef|gedc BAGB|
cAAG A2 AB|cAAd BGBd|cAAG A2ef|gfge dBGB||
|:c2gc acgc|c2gc BAGB|c2gc acga|gedc BAGB|
c2gc acgc|c2gc BAGB|ABcd efga|gedc BAGB:|

